src/static/logos/nanonets.svg

<?xml version="1.0" encoding="UTF-8"?>
<svg width="256px" height="206px" viewBox="0 0 256 206" version="1.1" xmlns="http://www.w3.org/2000/svg" xmlns:xlink="http://www.w3.org/1999/xlink" preserveAspectRatio="xMidYMid">
	<g>
		<path d="M159.9687,131.8189 C157.1197,129.8819 153.2367,130.6219 151.2977,133.4709 L136.2677,155.5839 C133.7217,154.7319 131.0057,154.2519 128.1737,154.2519 C125.3667,154.2519 122.6737,154.7209 120.1477,155.5579 L95.1857,120.6849 C99.7967,116.0669 102.6497,109.6919 102.6497,102.6489 C102.6497,88.5529 91.2227,77.1259 77.1257,77.1259 C63.0297,77.1259 51.6027,88.5529 51.6027,102.6489 C51.6027,109.2499 54.1287,115.2459 58.2407,119.7759 L35.0887,156.1219 C32.1327,154.9249 28.9087,154.2519 25.5237,154.2519 C11.4277,154.2519 -0.0003,165.6789 -0.0003,179.7749 C-0.0003,193.8719 11.4277,205.2989 25.5237,205.2989 C39.6197,205.2989 51.0477,193.8719 51.0477,179.7749 C51.0477,173.5909 48.8467,167.9229 45.1887,163.5059 L68.6357,126.6959 C71.2947,127.6349 74.1447,128.1729 77.1257,128.1729 C79.6637,128.1729 82.1107,127.7909 84.4237,127.0999 L109.6147,162.2899 C105.3077,166.8599 102.6497,173.0009 102.6497,179.7749 C102.6497,193.8719 114.0767,205.2989 128.1737,205.2989 C142.2697,205.2989 153.6977,193.8719 153.6977,179.7749 C153.6977,173.0229 151.0557,166.8999 146.7737,162.3359 L161.6227,140.4899 C163.5617,137.6399 162.8207,133.7569 159.9687,131.8189" fill="#3E7EBC"></path>
		<path d="M230.4766,-0.0004 C216.3796,-0.0004 204.9526,11.4266 204.9526,25.5236 C204.9526,31.9966 207.3816,37.8896 211.3536,42.3886 L188.1106,78.8756 C185.2436,77.7606 182.1356,77.1256 178.8736,77.1256 C176.0266,77.1256 173.2956,77.6116 170.7386,78.4736 L145.8016,43.6376 C150.4616,39.0126 153.3506,32.6066 153.3506,25.5236 C153.3506,11.4266 141.9226,-0.0004 127.8266,-0.0004 C113.7306,-0.0004 102.3026,11.4266 102.3026,25.5236 C102.3026,32.5766 105.1636,38.9606 109.7886,43.5806 L94.3776,66.2516 C92.4396,69.1036 93.1796,72.9856 96.0316,74.9236 C98.8826,76.8596 102.7636,76.1216 104.7036,73.2706 L120.5366,49.9766 C122.8476,50.6646 125.2916,51.0466 127.8266,51.0466 C130.3226,51.0466 132.7276,50.6726 135.0076,50.0046 L160.2376,85.2496 C155.9766,89.8106 153.3506,95.9166 153.3506,102.6486 C153.3506,116.7456 164.7776,128.1736 178.8736,128.1736 C192.9706,128.1736 204.3976,116.7456 204.3976,102.6486 C204.3976,96.3386 202.0956,90.5726 198.2996,86.1176 L221.6576,49.4496 C224.4096,50.4646 227.3716,51.0466 230.4766,51.0466 C244.5726,51.0466 255.9996,39.6196 255.9996,25.5236 C255.9996,11.4266 244.5726,-0.0004 230.4766,-0.0004" fill="#4C96DF"></path>
	</g>
</svg>

<svg width="256" height="206" xmlns="http://www.w3.org/2000/svg" preserveAspectRatio="xMidYMid"><path d="M159.969 131.819a6.245 6.245 0 00-8.671 1.652l-15.03 22.113a25.445 25.445 0 00-8.094-1.332c-2.807 0-5.5.469-8.026 1.306l-24.962-34.873a25.446 25.446 0 007.464-18.036c0-14.096-11.427-25.523-25.524-25.523-14.096 0-25.523 11.427-25.523 25.523 0 6.6 2.526 12.597 6.638 17.127l-23.152 36.346a25.417 25.417 0 00-9.565-1.87C11.428 154.252 0 165.679 0 179.775c0 14.097 11.428 25.524 25.524 25.524s25.524-11.427 25.524-25.524a25.418 25.418 0 00-5.86-16.27l23.448-36.81a25.43 25.43 0 008.49 1.478c2.538 0 4.985-.382 7.298-1.073l25.19 35.19c-4.306 4.57-6.964 10.71-6.964 17.485 0 14.097 11.427 25.524 25.524 25.524 14.096 0 25.524-11.427 25.524-25.524 0-6.752-2.642-12.875-6.924-17.44l14.849-21.845a6.24 6.24 0 00-1.654-8.671" fill="#3E7EBC"/><path d="M230.477 0c-14.097 0-25.524 11.427-25.524 25.524 0 6.473 2.429 12.366 6.4 16.865l-23.242 36.487a25.416 25.416 0 00-9.237-1.75c-2.847 0-5.578.486-8.135 1.348l-24.937-34.836c4.66-4.625 7.549-11.031 7.549-18.114C153.35 11.427 141.923 0 127.827 0s-25.524 11.427-25.524 25.524a25.442 25.442 0 007.486 18.057L94.378 66.25a6.242 6.242 0 1010.326 7.02l15.833-23.294a25.502 25.502 0 007.29 1.07c2.496 0 4.9-.374 7.18-1.042l25.23 35.245c-4.26 4.56-6.886 10.667-6.886 17.399 0 14.097 11.427 25.525 25.523 25.525 14.097 0 25.524-11.428 25.524-25.525 0-6.31-2.302-12.076-6.098-16.531l23.358-36.668a25.414 25.414 0 008.819 1.597C244.573 51.047 256 39.62 256 25.524 256 11.427 244.573 0 230.477 0" fill="#4C96DF"/></svg>
